X:2279
T:Köra
T:(DAL Ingemar Ingers)
T:"Köra till Särslöv"
T:efter Lars Lundin, Åkarp
R:Köra
B:Dialekt- och Ortnamnarkivet Lund
O:Åkarp, Skåne
Z:Åke Persson 2012-03-19
M:2/4
L:1/8
K:D
|: A2 AA | GA GA | GB AG | FA d2 | f2 ff |1 fe e2 | e2 ee | ed d2 :|2 fe ee | eg fe | dd d2 |]
|: a2 fb | a2 f2 | f2 dg | f2 d2 | gf ed |1 cA Bc | de fg | ba ^ga :|2 cA ce | Aa aa | d2 z2|]
(:musicend:)
(:music:)
